X:378
T: Wo wang shang hu huo zhao li
N: C1413
O: China,Gansu, Lixian
S: I,]
R: Shange. Changgong ma caizhu]
M: 2/4
L: 1/16
K: F
c4d4 | d4d4 | dcA2c3A | GFD2z4 |
c4c4 | c4AGF2 | A4GFD2 | D8 | D4z4 |
c4d4 | d4d4 | d3cc3A | GFD2z4 |
c4c2c2 | AGF2AGF2 | A4GFD2 | D8 | D4z4 |
c4d4 | d4d4 | d4c2A2 | GFD2z4 |
c4c4 | c4AGF2 | A4GFD2 | D8 | D4z4 |
A4c3A | GFD6 |
c4c4 | c4AGF2 | A4GFD2 | D8 | D4z4

@@@ Tune index: 6379
